src/assets/filled/Gps.svg

<?xml version="1.0" encoding="UTF-8"?>
<svg width="24" height="24" viewBox="0 0 24 24" xmlns="http://www.w3.org/2000/svg">
 <path d="m22 11.25h-2.04c-0.36-3.81-3.4-6.86-7.21-7.21v-2.04c0-0.41-0.34-0.75-0.75-0.75s-0.75 0.34-0.75 0.75v2.04c-3.81 0.36-6.86 3.4-7.21 7.21h-2.04c-0.41 0-0.75 0.34-0.75 0.75s0.34 0.75 0.75 0.75h2.04c0.36 3.81 3.4 6.86 7.21 7.21v2.04c0 0.41 0.34 0.75 0.75 0.75s0.75-0.34 0.75-0.75v-2.04c3.81-0.36 6.86-3.4 7.21-7.21h2.04c0.41 0 0.75-0.34 0.75-0.75s-0.34-0.75-0.75-0.75zm-10 3.87c-1.72 0-3.12-1.4-3.12-3.12s1.4-3.12 3.12-3.12 3.12 1.4 3.12 3.12-1.4 3.12-3.12 3.12z"/>
</svg>

<svg width="24" height="24" viewBox="0 0 24 24"  xmlns="http://www.w3.org/2000/svg">
<path d="M22 11.25H19.96C19.6 7.44 16.56 4.39 12.75 4.04V2C12.75 1.59 12.41 1.25 12 1.25C11.59 1.25 11.25 1.59 11.25 2V4.04C7.44 4.4 4.39 7.44 4.04 11.25H2C1.59 11.25 1.25 11.59 1.25 12C1.25 12.41 1.59 12.75 2 12.75H4.04C4.4 16.56 7.44 19.61 11.25 19.96V22C11.25 22.41 11.59 22.75 12 22.75C12.41 22.75 12.75 22.41 12.75 22V19.96C16.56 19.6 19.61 16.56 19.96 12.75H22C22.41 12.75 22.75 12.41 22.75 12C22.75 11.59 22.41 11.25 22 11.25ZM12 15.12C10.28 15.12 8.88 13.72 8.88 12C8.88 10.28 10.28 8.88 12 8.88C13.72 8.88 15.12 10.28 15.12 12C15.12 13.72 13.72 15.12 12 15.12Z" />
</svg>
